rospo-icon-theme-classic-common/32x32/apps/rto-proxy.svg

<svg height="32" viewBox="0 0 32 32" width="32" xmlns="http://www.w3.org/2000/svg"><path d="m16 3a14 14 0 0 0 -14 14 14 14 0 0 0 14 14 14 14 0 0 0 14-14 14 14 0 0 0 -14-14z" opacity=".2"/><path d="m16 2a14 14 0 0 0 -14 14 14 14 0 0 0 14 14 14 14 0 0 0 14-14 14 14 0 0 0 -14-14z" fill="#46c552"/><path d="m13.375817 23.880829c1.324324-.615545 2.504315-1.118043 2.622202-1.116664.117887.0013 1.288264.505006 2.600835 1.11917 1.312571.614167 2.472403 1.116665 2.577402 1.116665.145248 0 .172994-.11809.116003-.493752-.0412-.271564-.205987-1.545311-.366201-2.830548l-.291298-2.336796 1.313509-1.38895c1.952069-2.064183 2.620755-2.825651 2.546186-2.899468-.03681-.03644-1.28689-.29987-2.777937-.585383-2.155905-.412823-2.756231-.573677-2.931935-.785598-.121518-.146568-.68549-1.110741-1.253271-2.142609-1.208299-2.195929-1.513909-2.6599477-1.65424-2.5116855-.05668.059896-.680769 1.1457625-1.386851 2.4130435-.706083 1.26728-1.32772 2.347642-1.381422 2.4008-.0537.05316-1.202902.305959-2.553779.561775-3.1532938.597141-3.0546782.573286-3.0546782.738936 0 .07779.8699028 1.057918 1.9331168 2.178044 1.8072844 1.904024 1.9284754 2.063922 1.8618134 2.456466-.13034.767528-.602224 4.628446-.602486 4.929474-.000132.162938.0617.296251.137458.296251.07574 0 1.221248-.503627 2.545573-1.119171z" opacity=".2"/><path d="m13.375817 22.880829c1.324324-.615545 2.504315-1.118043 2.622202-1.116664.117887.0013 1.288264.505006 2.600835 1.11917 1.312571.614167 2.472403 1.116665 2.577402 1.116665.145248 0 .172994-.11809.116003-.493752-.0412-.271564-.205987-1.545311-.366201-2.830548l-.291298-2.336796 1.313509-1.38895c1.952069-2.064183 2.620755-2.825651 2.546186-2.899468-.03681-.03644-1.28689-.29987-2.777937-.585383-2.155905-.412823-2.756231-.573677-2.931935-.785598-.121518-.146568-.68549-1.110741-1.253271-2.142609-1.208299-2.195929-1.513909-2.6599477-1.65424-2.5116855-.05668.059896-.680769 1.1457621-1.386851 2.4130435-.706083 1.26728-1.32772 2.347642-1.381422 2.4008-.0537.05316-1.202902.305959-2.553779.561775-3.1532938.597141-3.0546782.573286-3.0546782.738936 0 .07779.8699028 1.057918 1.9331168 2.178044 1.8072844 1.904024 1.9284754 2.063922 1.8618134 2.456466-.13034.767528-.602224 4.628446-.602486 4.929474-.000132.162938.0617.296251.137458.296251.07574 0 1.221248-.503627 2.545573-1.119171z" fill="#fff"/><path d="m16 2a14 14 0 0 0 -14 14 14 14 0 0 0  .0214844.414062 14 14 0 0 1 13.9785156-13.414062 14 14 0 0 1 13.978516 13.585938 14 14 0 0 0  .021484-.585938 14 14 0 0 0 -14-14z" fill="#fff" opacity=".2"/></svg>

<svg xmlns="http://www.w3.org/2000/svg" width="32" height="32" version="1.1" viewBox="0 0 32 32">
 <path style="opacity:0.2" d="M 16,3 A 14,14 0 0 0 2,17 14,14 0 0 0 16,31 14,14 0 0 0 30,17 14,14 0 0 0 16,3 Z"/>
 <path style="fill:#46c552" d="M 16,2 A 14,14 0 0 0 2,16 14,14 0 0 0 16,30 14,14 0 0 0 30,16 14,14 0 0 0 16,2 Z"/>
 <path style="opacity:0.2" d="m 13.375817,23.880829 c 1.324324,-0.615545 2.504315,-1.118043 2.622202,-1.116664 0.117887,0.0013 1.288264,0.505006 2.600835,1.11917 C 19.911425,24.497502 21.071257,25 21.176256,25 c 0.145248,0 0.172994,-0.11809 0.116003,-0.493752 -0.0412,-0.271564 -0.205987,-1.545311 -0.366201,-2.830548 l -0.291298,-2.336796 1.313509,-1.38895 c 1.952069,-2.064183 2.620755,-2.825651 2.546186,-2.899468 -0.03681,-0.03644 -1.28689,-0.29987 -2.777937,-0.585383 -2.155905,-0.412823 -2.756231,-0.573677 -2.931935,-0.785598 -0.121518,-0.146568 -0.68549,-1.110741 -1.253271,-2.142609 -1.208299,-2.195929 -1.513909,-2.6599477 -1.65424,-2.5116855 -0.05668,0.059896 -0.680769,1.1457625 -1.386851,2.4130435 -0.706083,1.26728 -1.32772,2.347642 -1.381422,2.4008 -0.0537,0.05316 -1.202902,0.305959 -2.553779,0.561775 -3.1532938,0.597141 -3.0546782,0.573286 -3.0546782,0.738936 0,0.07779 0.8699028,1.057918 1.9331168,2.178044 1.8072844,1.904024 1.9284754,2.063922 1.8618134,2.456466 -0.13034,0.767528 -0.602224,4.628446 -0.602486,4.929474 C 10.692654,24.866687 10.754486,25 10.830244,25 c 0.07574,0 1.221248,-0.503627 2.545573,-1.119171 z"/>
 <path style="fill:#ffffff" d="m 13.375817,22.880829 c 1.324324,-0.615545 2.504315,-1.118043 2.622202,-1.116664 0.117887,0.0013 1.288264,0.505006 2.600835,1.11917 C 19.911425,23.497502 21.071257,24 21.176256,24 c 0.145248,0 0.172994,-0.11809 0.116003,-0.493752 -0.0412,-0.271564 -0.205987,-1.545311 -0.366201,-2.830548 l -0.291298,-2.336796 1.313509,-1.38895 c 1.952069,-2.064183 2.620755,-2.825651 2.546186,-2.899468 -0.03681,-0.03644 -1.28689,-0.29987 -2.777937,-0.585383 -2.155905,-0.412823 -2.756231,-0.573677 -2.931935,-0.785598 -0.121518,-0.146568 -0.68549,-1.110741 -1.253271,-2.142609 -1.208299,-2.195929 -1.513909,-2.6599477 -1.65424,-2.5116855 -0.05668,0.059896 -0.680769,1.1457621 -1.386851,2.4130435 -0.706083,1.26728 -1.32772,2.347642 -1.381422,2.4008 -0.0537,0.05316 -1.202902,0.305959 -2.553779,0.561775 -3.1532938,0.597141 -3.0546782,0.573286 -3.0546782,0.738936 0,0.07779 0.8699028,1.057918 1.9331168,2.178044 1.8072844,1.904024 1.9284754,2.063922 1.8618134,2.456466 -0.13034,0.767528 -0.602224,4.628446 -0.602486,4.929474 C 10.692654,23.866687 10.754486,24 10.830244,24 c 0.07574,0 1.221248,-0.503627 2.545573,-1.119171 z"/>
 <path style="fill:#ffffff;opacity:0.2" d="M 16 2 A 14 14 0 0 0 2 16 A 14 14 0 0 0 2.0214844 16.414062 A 14 14 0 0 1 16 3 A 14 14 0 0 1 29.978516 16.585938 A 14 14 0 0 0 30 16 A 14 14 0 0 0 16 2 z"/>
</svg>
